X:884
T:Reel 884
L:1/8
M: 4/4
K: G Major
CA,DB,G,G,A,G,|CCCDEB,CD|GCCB,CDEE|FAGDB,DCA,|CCCB,G,G,G,G,|CB,A,B,G,B,CD|FBAGFDCA,|DCA,CE3C:||:EFGAAGBA|GDEFEDCA,|G,G,G,G,A,G,CA,|CB,DDC3D|EFGBAGFE|DGFAGABd|cAFGFDCA,|DCDB,C2A,G,:|.abc